X: 59
T: Missa De Sancto Job / Gloria
N: Derived from Rue1013b-Missa_De_Sancto_Job-Gloria.krn
C: Pierre de la Rue
%%abc-version 2.0
%%abcx-abcm2ps-target-version 5.9.1 (29 Sep 2008)
%%abc-creator hum2abc beta
%%abcx-conversion-date 2019/02/17 08:01:11
%%abc-edited-by Jesse Rodin
%%abc-edited-by Megan K. Eagen 2013/01/20
%%abcx-initial-encoding-date 2013/01/20/
%%humdrum-veritas 4109339800
%%humdrum-veritas-data 698922286
%%linebreak <none>
%%barnumbers 0
L: 1/4
M: 3/1
Q: 1/2=120
%%staves [1 2 3 4]
V: 1 clef=treble
V: 2 clef=treble-8
V: 3 clef=treble-8
V: 4 clef=bass
K: F
[V:1] G8B3A | 
[V:2] G8G4 | 
[V:3] z12 | 
[V:4] z12 | 
[V:1] G2F4EDE4 | 
[V:2] B8c4 | 
[V:3] z12 | 
[V:4] z12 | 
[V:1] D2A2A2B3AAG | 
[V:2] d12 | 
[V:3] z12 | 
[V:4] z12 | 
[V:1] F4z2c4B2 | 
[V:2] z2d2d2_e3ddc | 
[V:3] z12 | 
[V:4] z12 | 
[V:1] G2A4GFEDF2 | 
[V:2] B2f4e2c2d2- | 
[V:3] z12 | 
[V:4] z12 | 
[V:1] E2A4G4^F2 | 
[V:2] d2cBAGB2A4 | 
[V:3] z12 | 
[V:4] z12 | 
[V:1] G8z4 | 
[V:2] G8z4 | 
[V:3] z4z4G4 | 
[V:4] z4G,4G,2B,2- | 
[V:1] z12 | 
[V:2] z12 | 
[V:3] B8c4 | 
[V:4] B,A,G,F,_E,2D,2C,4 | 
[V:1] z12 | 
[V:2] z12 | 
[V:3] d6B2c4 | 
[V:4] B,,2F,2G,2B,4A,2 | 
[V:1] z12 | 
[V:2] z12 | 
[V:3] z2B2B2B2c2d2- | 
[V:4] B,4B,,4z2B,,2 | 
[V:1] z12 | 
[V:2] z12 | 
[V:3] d2cBAGc2B2A2- | 
[V:4] B,,2B,,2C,2C,2D,4- | 
[V:1] z12 | 
[V:2] z12 | 
[V:3] A2d2d3ccBB2- | 
[V:4] D,4F,2F,4D,_E, | 
[V:1] z12 | 
[V:2] z12 | 
[V:3] B2A2B2d4d2 | 
[V:4] C,4B,,8 | 
[V:1] z12 | 
[V:2] z12 | 
[V:3] c2A2B2ABcBAG | 
[V:4] z2D,4D,2C,4 | 
[V:1] z12 | 
[V:2] z12 | 
[V:3] F2F2G2A3Bcd | 
[V:4] A,,2B,,4A,,B,,C,B,,A,,G,, | 
[V:1] z12 | 
[V:2] z12 | 
[V:3] cAB3AG4^F2 | 
[V:4] A,,2G,,2B,,2C,2A,,4 | 
[V:1] z4z4G4 | 
[V:2] z4z4d4 | 
[V:3] G12- | 
[V:4] G,,12 | 
[V:1] G2G4FED4 | 
[V:2] d2_e4dcB4- | 
[V:3] G12 | 
[V:4] z4z4G,4 | 
[V:1] E2D2G4F2F2 | 
[V:2] B2AGB2c2d4 | 
[V:3] z12 | 
[V:4] G,2G,2G,2F,E,D,2D,2 | 
[V:1] B2B2c8 | 
[V:2] B4_e8 | 
[V:3] G8G4 | 
[V:4] _E,4C,8 | 
[V:1] d4z2d2d2d2 | 
[V:2] d4z2d2d2d2 | 
[V:3] B8B4 | 
[V:4] B,,12 | 
[V:1] c2A4GFG2A2 | 
[V:2] e2f4ede2f2 | 
[V:3] c12- | 
[V:4] z2F,2F,2F,2C,2F,2 | 
[V:1] c3BA2GFG4 | 
[V:2] F4z4z4 | 
[V:3] c8c4 | 
[V:4] A,3G,F,2E,D,E,4 | 
[V:1] F8z4 | 
[V:2] z2A2A2A2B2AG | 
[V:3] d12- | 
[V:4] D,8z4 | 
[V:1] z2A2A2A2B2AG | 
[V:2] F2A4F2G2A2 | 
[V:3] d12 | 
[V:4] D,4D,2D,2G,,2D,2- | 
[V:1] F2A4F2G2A2 | 
[V:2] B2AGF2F2c4 | 
[V:3] z12 | 
[V:4] D,E,F,4E,D,C,4 | 
[V:1] B2AGF2D2C4 | 
[V:2] d3c/B/A2B4A2 | 
[V:3] z12 | 
[V:4] B,,4z4z4 | 
[V:1] B,8z4 | 
[V:2] B4z2B2A2B2- | 
[V:3] d8c2d2- | 
[V:4] B,,4B,,C,D,E,F,2B,,2 | 
[V:1] z12 | 
[V:2] B2AGF4z4 | 
[V:3] d2cBA2A2d4 | 
[V:4] B,,4z2D,2D,3E, | 
[V:1] z12 | 
[V:2] z12 | 
[V:3] B2c3BAGA4 | 
[V:4] F,G,A,4G,4^F,2 | 
[V:1] B6AGA2B2 | 
[V:2] d8d4 | 
[V:3] G8z4 | 
[V:4] G,4G,,4z4 | 
[V:1] G2c2c2BAB2c2 | 
[V:2] e6dcd2e2 | 
[V:3] z12 | 
[V:4] z12 | 
[V:1] A6GFG2A2 | 
[V:2] c2f4ede2f2 | 
[V:3] z12 | 
[V:4] z12 | 
[V:1] F3EDEFGE2D2 | 
[V:2] d6cBc2d2 | 
[V:3] z12 | 
[V:4] z12 | 
[V:1] z2B4G2A2c2 | 
[V:2] B3AGABcA4 | 
[V:3] z12 | 
[V:4] z4z2G,4F,2 | 
[V:1] B2A4GFG4 | 
[V:2] z2A2FGABG4 | 
[V:3] z4z2d4c2 | 
[V:4] G,2D,3E,F,G,E,4 | 
[V:1] F4z4F4- | 
[V:2] A3FF4z4 | 
[V:3] d2A3BcAB4 | 
[V:4] D,4z4z4 | 
[V:1] F2F2F4E4 | 
[V:2] z2d4d2G4 | 
[V:3] A8z4 | 
[V:4] D,6D,2C,4 | 
[V:1] D4z2D4D2 | 
[V:2] G2F4F2G4 | 
[V:3] B6B2B4 | 
[V:4] B,,8B,,4 | 
[V:1] E6C2C4 | 
[V:2] E8z2A2- | 
[V:3] G4G2A4F2 | 
[V:4] C,6A,,2A,,4 | 
[V:1] z2F4EDFGAB | 
[V:2] A2GFA2B2A2f2- | 
[V:3] F4z2F4ED | 
[V:4] D,8D,4- | 
[V:1] A2F4G2A2c2- | 
[V:2] f2d2_edcBc3d | 
[V:3] FGABA2G4F2 | 
[V:4] D,4C,2B,,2A,,4 | 
[V:1] c2B3AG4F2 | 
[V:2] _e2d4cBc2F2 | 
[V:3] G2D2G2B2A4 | 
[V:4] G,,8z2D,2 | 
[V:1] G2D2G8 | 
[V:2] z2B2c2G3ABc | 
[V:3] G8z2G2 | 
[V:4] _E,2B,,2E,8 | 
[V:1] z2F2G2D3EFG | 
[V:2] d8d4 | 
[V:3] A2F2B8 | 
[V:4] D,4G,,4z4 | 
[V:1] A4D8- | 
[V:2] z2c2B2G2B4 | 
[V:3] A4z4z4 | 
[V:4] z2F,2G,2G,,3A,,B,,C, | 
[V:1] D12 | 
[V:2] A2B4AGF4- | 
[V:3] z2F2G2D3EFG | 
[V:4] D,4G,,4D,4- | 
[V:1] D12 ||  
[V:2] F12 ||  
[V:3] A12 ||  
[V:4] D,12 ||  
[V:1]  [K:F] [K:clef=treble][M:2/1]z8 | 
[V:2]  [K:F] [K:clef=treble-8][M:2/1]z8 | 
[V:3]  [K:F] [K:clef=treble-8][M:2/1]d8 | 
[V:4]  [K:F] [K:clef=bass][M:2/1]z4G,4- | 
[V:1] z8 | 
[V:2] z8 | 
[V:3] B4c4 | 
[V:4] G,4E,4 | 
[V:1] z8 | 
[V:2] z8 | 
[V:3] d8- | 
[V:4] F,4G,4 | 
[V:1] z8 | 
[V:2] z8 | 
[V:3] d4d4 | 
[V:4] F,2G,4F,E, | 
[V:1] z8 | 
[V:2] z8 | 
[V:3] d4c2d2- | 
[V:4] D,4E,2F,2 | 
[V:1] z8 | 
[V:2] z8 | 
[V:3] d2cBA4 | 
[V:4] D,2G,4F,2 | 
[V:1] z8 | 
[V:2] z8 | 
[V:3] G4z2G2 | 
[V:4] G,2C,2D,2E,2 | 
[V:1] z8 | 
[V:2] z8 | 
[V:3] A2B2c3A | 
[V:4] F,3D,E,2C,2 | 
[V:1] z8 | 
[V:2] z8 | 
[V:3] B2G2A2B2 | 
[V:4] D,2E,2F,4 | 
[V:1] z8 | 
[V:2] z8 | 
[V:3] c2d4cB | 
[V:4] z2B,,2C,2D,2 | 
[V:1] z8 | 
[V:2] z8 | 
[V:3] c2B4A2 | 
[V:4] _E,D,C,B,,C,4 | 
[V:1] F8 | 
[V:2] d8 | 
[V:3] B8- | 
[V:4] B,,8- | 
[V:1] F4F4 | 
[V:2] d4d4 | 
[V:3] B8- | 
[V:4] B,,8- | 
[V:1] D2F3EDC | 
[V:2] f4d3e | 
[V:3] B8 | 
[V:4] B,,8 | 
[V:1] B,4z2A2 | 
[V:2] f2f3edc | 
[V:3] z8 | 
[V:4] z8 | 
[V:1] B3ABAGF | 
[V:2] B4z2d2 | 
[V:3] z8 | 
[V:4] z8 | 
[V:1] G2c4B2- | 
[V:2] _e3d_edcB | 
[V:3] z8 | 
[V:4] z8 | 
[V:1] B2A2B4 | 
[V:2] c4B4 | 
[V:3] z8 | 
[V:4] z8 | 
[V:1] A6A2 | 
[V:2] f6f2 | 
[V:3] c6c2 | 
[V:4] F,6F,2 | 
[V:1] A4A4 | 
[V:2] f4f4 | 
[V:3] c4c4 | 
[V:4] F,4F,4 | 
[V:1] A4A4 | 
[V:2] f4f4- | 
[V:3] d8 | 
[V:4] D,4D,4 | 
[V:1] B4A2G2- | 
[V:2] f2ede4- | 
[V:3] d4c4- | 
[V:4] B,,4C,4- | 
[V:1] GFEDE4 | 
[V:2] e4c4 | 
[V:3] c2B2G2A2 | 
[V:4] C,4C,4 | 
[V:1] D4z4 | 
[V:2] f3ed2cB | 
[V:3] B8 | 
[V:4] B,,3C,D,2_E,2 | 
[V:1] z2C2D3_E | 
[V:2] AGA2B4 | 
[V:3] z4B3c | 
[V:4] C,4B,,4 | 
[V:1] F2G2_E4 | 
[V:2] z8 | 
[V:3] d2_e2c4 | 
[V:4] z4z2A,,2 | 
[V:1] D4z2B,2 | 
[V:2] F2G2F2B2- | 
[V:3] B8 | 
[V:4] B,,3C,D,2_E,2 | 
[V:1] C2C2D3_E | 
[V:2] B2A2G2F2- | 
[V:3] z4B4- | 
[V:4] C,4B,,3C, | 
[V:1] F2G2_E4 | 
[V:2] F2_ED_E4 | 
[V:3] B2AGA4 | 
[V:4] D,2_E,2C,4 | 
[V:1] D4D4 | 
[V:2] F8 | 
[V:3] B4B4 | 
[V:4] B,,8 | 
[V:1] F8 | 
[V:2] z4d4 | 
[V:3] B8 | 
[V:4] z4B,,4 | 
[V:1] F8 | 
[V:2] d8 | 
[V:3] A8 | 
[V:4] D,8 | 
[V:1] z4F4 | 
[V:2] d8 | 
[V:3] z4A4 | 
[V:4] D,8 | 
[V:1] F4F4 | 
[V:2] z4d4 | 
[V:3] A4A4 | 
[V:4] z4D,4 | 
[V:1] F8 | 
[V:2] d4d4 | 
[V:3] A4A2B2- | 
[V:4] D,4D,4 | 
[V:1] F8 | 
[V:2] d8 | 
[V:3] B2AGA4 | 
[V:4] D,8 | 
[V:1] G8 | 
[V:2] B6c2 | 
[V:3] G8- | 
[V:4] _E,6C,2 | 
[V:1] G4E2E2- | 
[V:2] c4z2c2- | 
[V:3] G8- | 
[V:4] C,8 | 
[V:1] E2DCD2E2 | 
[V:2] c2BAB2c2 | 
[V:3] G8 | 
[V:4] C,4G,,2C,2 | 
[V:1] F2E4D2- | 
[V:2] A2G2A2B2 | 
[V:3] z8 | 
[V:4] D,2E,2F,2G,2 | 
[V:1] D2C2D2F2 | 
[V:2] G4A2d2 | 
[V:3] z8 | 
[V:4] E,4D,4 | 
[V:1] E2D4CB, | 
[V:2] c2B4AG | 
[V:3] z8 | 
[V:4] z8 | 
[V:1] A,8 | 
[V:2] F8 | 
[V:3] z4c4- | 
[V:4] z8 | 
[V:1] z8 | 
[V:2] z8 | 
[V:3] c2c2A4 | 
[V:4] F,6F,2 | 
[V:1] z8 | 
[V:2] z8 | 
[V:3] A4B2A2- | 
[V:4] D,8 | 
[V:1] z8 | 
[V:2] z8 | 
[V:3] A2GFG2F2- | 
[V:4] D,4_E,2D,2- | 
[V:1] z8 | 
[V:2] z8 | 
[V:3] FGABA2B2- | 
[V:4] D,2C,B,,C,2B,,2- | 
[V:1] z8 | 
[V:2] z8 | 
[V:3] B2AGFGAB | 
[V:4] B,,C,D,_E,D,2C,2- | 
[V:1] z4A4 | 
[V:2] z8 | 
[V:3] A2G4^F2 | 
[V:4] C,B,,A,,G,,A,,4 | 
[V:1] B6B2 | 
[V:2] z4d4 | 
[V:3] G8 | 
[V:4] G,,8 | 
[V:1] G2G2c4- | 
[V:2] e6e2 | 
[V:3] z8 | 
[V:4] z8 | 
[V:1] c2BAA4 | 
[V:2] c2c2f3e | 
[V:3] z8 | 
[V:4] z8 | 
[V:1] B2A4GF | 
[V:2] d2cBA4- | 
[V:3] z4A4 | 
[V:4] z8 | 
[V:1] A2GFE2A2- | 
[V:2] A4A4 | 
[V:3] c4c4 | 
[V:4] A,,8 | 
[V:1] A2F4D2 | 
[V:2] A8 | 
[V:3] d6d2 | 
[V:4] D,8 | 
[V:1] D4z4 | 
[V:2] z4B4- | 
[V:3] A4z2d2 | 
[V:4] D,4D,2B,,2- | 
[V:1] z2d2d2d2- | 
[V:2] B2B2B4 | 
[V:3] d2d3cBA | 
[V:4] B,,2G,,2G,,4 | 
[V:1] dcBAG4- | 
[V:2] B4c2BA | 
[V:3] G4G4 | 
[V:4] G,,4C,3D, | 
[V:1] G2G2A4 | 
[V:2] G2c2A2c2 | 
[V:3] c8 | 
[V:4] E,2C,2F,2A,2 | 
[V:1] B4A4 | 
[V:2] d2e2f4 | 
[V:3] B4c4 | 
[V:4] G,4F,4 | 
[V:1] z2A2B2G2 | 
[V:2] z2f2g2e2 | 
[V:3] z2c2d2B2 | 
[V:4] A,4G,4 | 
[V:1] A2c3BAG | 
[V:2] f4e2f2- | 
[V:3] c2A2c3B | 
[V:4] F,3G,A,2F,2- | 
[V:1] A2G4^F2 | 
[V:2] fedcd4 | 
[V:3] cBAGA4 | 
[V:4] F,2G,2D,4 | 
[V:1] G8 | 
[V:2] B4G4 | 
[V:3] G4z4 | 
[V:4] G,,4C,4 | 
[V:1] z8 | 
[V:2] z4c4 | 
[V:3] G8- | 
[V:4] B,,2C,3D,_E,2- | 
[V:1] z8 | 
[V:2] B2c2d2_e2- | 
[V:3] G8 | 
[V:4] E,2D,C,B,,2C,2- | 
[V:1] z8 | 
[V:2] e2dcB2_e2- | 
[V:3] G4G4 | 
[V:4] C,D,_E,F,G,2C,2 | 
[V:1] z4G4 | 
[V:2] e2d4c2 | 
[V:3] G4G4 | 
[V:4] G,3F,_E,4 | 
[V:1] F2G2A2B2- | 
[V:2] d8 | 
[V:3] A2B2A2d2- | 
[V:4] D,8 | 
[V:1] B2AGF2B2- | 
[V:2] z8 | 
[V:3] d2cBd4 | 
[V:4] G,,4z4 | 
[V:1] B2A4G2 | 
[V:2] z2c2d2e2 | 
[V:3] A4B4 | 
[V:4] z4G,4 | 
[V:1] A8 | 
[V:2] f6e2 | 
[V:3] A8 | 
[V:4] F,2D,4C,2 | 
[V:1] z4d4 | 
[V:2] fedcd4 | 
[V:3] z2A4G2 | 
[V:4] D,2A,,2B,,4 | 
[V:1] c2A4G2 | 
[V:2] z4d4 | 
[V:3] A4B4 | 
[V:4] A,,4z4 | 
[V:1] A2E2A3G | 
[V:2] c2def2e2- | 
[V:3] A8- | 
[V:4] A,,8 | 
[V:1] F2EDE4 | 
[V:2] e2d4c2 | 
[V:3] A8 | 
[V:4] A,,8 | 
[V:1] D4z2B,2 | 
[V:2] d2B3cd2 | 
[V:3] F4G4 | 
[V:4] B,,4G,,4 | 
[V:1] C2D2_E4 | 
[V:2] _e2d4c2 | 
[V:3] z2F2G2A2 | 
[V:4] z8 | 
[V:1] D2G4F2 | 
[V:2] d4z4 | 
[V:3] B4A4 | 
[V:4] z2B,,2C,2D,2 | 
[V:1] G2B4B2 | 
[V:2] B6AG | 
[V:3] G8 | 
[V:4] _E,8 | 
[V:1] BAGFG4 | 
[V:2] B3AB2c2 | 
[V:3] z2G2G2G2 | 
[V:4] _E,8 | 
[V:1] F2D3EF2 | 
[V:2] d4A4 | 
[V:3] A2A2F3G | 
[V:4] D,3E,F,2D,2 | 
[V:1] CDEFG2E2 | 
[V:2] z2G2G2G2- | 
[V:3] ABc3Bc2 | 
[V:4] F,2C,3D,E,F, | 
[V:1] D2G4^F2 | 
[V:2] GABcd4- | 
[V:3] B2G2A4 | 
[V:4] G,2E,2D,4 | 
[V:1] G8- | 
[V:2] d2B2_e4 | 
[V:3] G8- | 
[V:4] G,,8- | 
[V:1] G8 |]  
[V:2] d8 |]  
[V:3] G8 |]  
[V:4] G,,8 |]  



